X: 1046
T: Come Boys fill us, &c.
%R: air, waltz
B: Henry Playford "Apollo's Banquet", London 1687 (5th Edition)
F: https://archive.org/details/apollosbanquetco01rugg
Z: 2017 John Chambers <jc:trillian.mit.edu>
M: 3/4
L: 1/8
K: G
% - - - - - - - - - -
|:\
g4 d2 | e2 d2 c2 | B3 A/B/ G2 |\
g4 f2 | e2 a4 | f6 ::\
a4 d2 | e2 f2 g2 | B4 B2 |
e4 d2 | c2 B4 | A4 A2 |\
B4 c2 | d2 ef g2 | f2 d2 g2 |\
e3 f g2 | a2 f3 e/f/ | g6 |]
% - - - - - - - - - -

%%sep 1 1 500
%%sep 1 1 500

